X: 34881
T: Robertsons Of Raga
R: reel
M: 4/4
K: Emajor
EC|B,CEF EFGA|BcBG cBGE|FEFG AGAB|cFFE F2FG|
AGAB cBcd|efec cBGE|FEFG AGFE|CEEF E2:|
|:ec|Be (3eee ge (3eee|bege fecB|cffe fdef|gccB c2ec|
Be (3eee ge (3eee|bege fecB|cdec cBGc|BGFG E2:|

